X:1
T:Holy Day (Gower), 76.76.77
T:Holy Day (Gower), 76.76.77
T:John Henry Gower, 1895
T:Public Domain Courtesy of the Cyber Hymnal™
C:John Henry Gower, 1895
Z:Public Domain
Z:Courtesy of the Cyber Hymnal™
%%score ( 1 2 ) ( 3 4 )
L:1/8
M:3/4
K:E
V:1 treble 
V:2 treble 
V:3 bass 
V:4 bass 
V:1
 (E2 F2) [EG]2 | (B2 A2) E2 | [EG]4 [DF]2 | E4 E2 | (B2 c2) [EB]2 | E4 [EA]2 | ([EG]6 | [DF]6) | %8
 (E2 F2) [EG]2 | (B2 A2) [EA]2 | (^A2 d2) [Ec]2 | [DB]4 (^AG) | [DF]4 [Dd]2 | [EG]4 [Ec]2 | %14
 [DB]6- | [DB]6 | [EB]4 [Ee]2 | [DA]4 [DF]2 | [EG]4 [=Gc]2 | B6 | (B2 A2) E2 | [EG]4 [CE]2 | %22
 [CF]4 [DF]2 | E6 |] %24
V:2
 B,4 x2 | E4 E2 | x6 | E4 E2 | E4 x2 | E4 x2 | x6 | x6 | B,4 x2 | E4 x2 | E4 x2 | x4 C2 | x6 | x6 | %14
 x6 | x6 | x6 | x6 | x6 | (F4 E2) | E4 E2 | x6 | x6 | E6 |] %24
V:3
 ([E,G,]2 [D,F,]2) [=D,B,]2 | [C,A,]4 [=C,A,]2 | (B,2 G,2) [B,,A,]2 | [E,G,]4 [E,G,]2 | %4
 [=D,G,]4 [D,G,]2 | [C,A,]4 [F,,C]2 | ([B,,B,]6- | B,4 A,2) | ([E,G,]2 [D,F,]2) [=D,B,]2 | %9
 [C,C]4 [C,C]2 | (C2 G,2) [F,^A,]2 | [B,,B,]4 [^E,B,]2 | (B,2 ^A,2) [F,B,]2 | (C2 B,2) [F,^A,]2 | %14
 ([B,,B,]6- | B,6) | B,4 [B,,G,]2 | B,4 [B,,B,]2 | B,4 [E,^A,]2 | ([D,B,]4 [=D,G,]2) | %20
 (E,2 A,2) [=C,A,]2 | [B,,B,]4 [C,G,]2 | [F,,A,]4 [B,,A,]2 | [E,G,]6 |] %24
V:4
 x6 | x6 | B,,4 x2 | x6 | x6 | x6 | x6 | B,,6 | x6 | x6 | F,4 x2 | x6 | F,4 x2 | F,4 x2 | x6 | %15
 (B,,2 B,2 A,2) | (G,2 B,,2) x2 | (F,2 B,,2) x2 | (E,2 B,,2) x2 | x6 | =C,4 x2 | x6 | x6 | x6 |] %24

